client/src/assets/logo/dig-it-emblem-green.svg

<svg xmlns="http://www.w3.org/2000/svg" style="isolation:isolate" width="400" height="400"><defs><clipPath id="a"><path d="M0 0h400v400H0z"/></clipPath></defs><g clip-path="url(#a)"><clipPath id="b"><path fill="#FFF" d="M-133-300h1200V700H-133z"/></clipPath><g clip-path="url(#b)"><clipPath id="c"><path d="M-117-294h1200V706H-117V-294z" fill="#FFF"/></clipPath><g fill-rule="evenodd" clip-path="url(#c)"><path d="M208.9 83.225c21.193 6.308 39.606 17.479 54.401 31.924-6.061-12.085-9.066-18.204-4.597-28.862a141.67 141.67 0 0 0-35.069-15.871c-71.312-21.225-146.149 16.43-172.37 84.743C77.968 95.993 144.956 64.19 208.9 83.225zM302.483 196.594c1.635 16.521.155 33.63-4.874 50.524-20.758 69.754-94.141 109.472-163.895 88.71a131.836 131.836 0 0 1-33.859-15.546c12.691 9.265 27.147 16.562 43.067 21.305 74.881 22.283 153.653-20.351 175.942-95.232 5.871-19.737 7.232-39.741 4.685-58.913a1574.674 1574.674 0 0 0-21.066 9.152z" fill="#423D37"/><path d="M284.451 142.104c21.684-10.808 39.04-21.4 61.36-23.606-21.718 4.636-42.061 15.09-62.1 26.83l.181.005c-51.728 26.397-76.683 49.885-103.98 99.678-19.067-31.459-68.442-67.526-103.675-78.697 38.344 28.838 82.599 92.253 99.992 139.71 33.847-69.567 53.738-112.348 114.914-158.941 19.345-14.733 52.505 37.119 101.937-35.877-55.227-13.386-55.01-41.944-108.629 30.898z" fill="#87C145"/><path d="M279.48 139.03c2.7-14.54 4.563-28.983 2.645-42.992 3.501 13.844.91 26.531-.874 41.853 32.035-47.862 14.977-41.556-4.979-71.738-25.384 34.876-12.729 31.619 3.208 72.877zM175.77 124.076a117.538 117.538 0 0 0-22.334 30.667c-8.333 16.529-11.039 31.646-12 41.333 7.28 3.383 13.307 7.102 18.271 10.719l.69.507a106.616 106.616 0 0 1 15.373 13.892 94.217 94.217 0 0 1 31.666-24.785 96.315 96.315 0 0 0-7.666-38.666c-7.26-17.054-17.77-28.034-24-33.667z" fill="#87C145"/></g></g></g></svg>

<?xml version="1.0" standalone="no"?><!-- Generator: Gravit.io --><svg xmlns="http://www.w3.org/2000/svg" xmlns:xlink="http://www.w3.org/1999/xlink" style="isolation:isolate" viewBox="0 0 400 400" width="400" height="400"><defs><clipPath id="_clipPath_4YmlehKlBUXsXGH7AI4Bjo8aY1s1xYUK"><rect width="400" height="400"/></clipPath></defs><g clip-path="url(#_clipPath_4YmlehKlBUXsXGH7AI4Bjo8aY1s1xYUK)"><clipPath id="_clipPath_4ZC4wkmt71iCRgoOWh9xH9A0SNaeQjMv"><rect x="-133" y="-300" width="1200" height="1000" transform="matrix(1,0,0,1,0,0)" fill="rgb(255,255,255)"/></clipPath><g clip-path="url(#_clipPath_4ZC4wkmt71iCRgoOWh9xH9A0SNaeQjMv)"><g><clipPath id="_clipPath_iMdso7BIMOm4Ow2SVeACGDfv5PDzYBb3"><path d=" M -117 -294 L 1083 -294 L 1083 706 L -117 706 L -117 -294 Z " fill="rgb(255,255,255)"/></clipPath><g clip-path="url(#_clipPath_iMdso7BIMOm4Ow2SVeACGDfv5PDzYBb3)"><g><path d=" M 208.9 83.225 C 230.093 89.533 248.506 100.704 263.301 115.149 C 257.24 103.064 254.235 96.945 258.704 86.287 C 248.041 79.578 236.3 74.187 223.635 70.416 C 152.323 49.191 77.486 86.846 51.265 155.159 C 77.968 95.993 144.956 64.19 208.9 83.225 Z " fill-rule="evenodd" fill="rgb(66,61,55)"/><path d=" M 302.483 196.594 C 304.118 213.115 302.638 230.224 297.609 247.118 C 276.851 316.872 203.468 356.59 133.714 335.828 C 121.443 332.176 110.103 326.886 99.855 320.282 C 112.546 329.547 127.002 336.844 142.922 341.587 C 217.803 363.87 296.575 321.236 318.864 246.355 C 324.735 226.618 326.096 206.614 323.549 187.442 C 316.487 190.449 309.465 193.5 302.483 196.594 Z " fill-rule="evenodd" fill="rgb(66,61,55)"/><path d=" M 284.451 142.104 C 306.135 131.296 323.491 120.704 345.811 118.498 C 324.093 123.134 303.75 133.588 283.711 145.328 L 283.892 145.333 C 232.164 171.73 207.209 195.218 179.912 245.011 C 160.845 213.552 111.47 177.485 76.237 166.314 C 114.581 195.152 158.836 258.567 176.229 306.024 C 210.076 236.457 229.967 193.676 291.143 147.083 C 310.488 132.35 343.648 184.202 393.08 111.206 C 337.853 97.82 338.07 69.262 284.451 142.104 Z " fill-rule="evenodd" fill="rgb(135,193,69)"/><path d=" M 279.48 139.03 C 282.18 124.49 284.043 110.047 282.125 96.038 C 285.626 109.882 283.035 122.569 281.251 137.891 C 313.286 90.029 296.228 96.335 276.272 66.153 C 250.888 101.029 263.543 97.772 279.48 139.03 Z " fill-rule="evenodd" fill="rgb(135,193,69)"/><path d=" M 175.77 124.076 C 169.306 130.464 160.595 140.544 153.436 154.743 C 145.103 171.272 142.397 186.389 141.436 196.076 C 148.716 199.459 154.743 203.178 159.707 206.795 C 160.005 207.013 160.249 207.193 160.397 207.302 C 166.591 211.892 171.647 216.668 175.77 221.194 C 178.98 217.318 183.155 212.909 188.457 208.545 C 195.339 202.88 202.017 199.024 207.436 196.409 C 207.523 188.147 206.612 173.82 199.77 157.743 C 192.51 140.689 182 129.709 175.77 124.076 Z " fill-rule="evenodd" fill="rgb(135,193,69)"/></g></g></g></g></g></svg>
